X: 1366
T: Miss Campbell
R:Reel
N:Collected by J. O'Neill
B:O'Neill's 1366
Z:Transcribed by Trish O'Neil
M:C|
L:1/8
K:D
B|AF (3ABc dc (3def|{f}edef edBd|AF (3ABc Bdgb|1af{a}ge fdBd:|2~agec edd||
f|abaf {a}gefd|(3gfe (3fed ceef|abaf {a}gefd|(3gfe (3dcB Addf|
abag fedf|(3efg (3fed ceef|dA (3FGA Bdfb|~afec ed d|]


